X: 26
T:Garrett Barry's
R:Jig
Z:Seattle.  Fine piping jig.
M:6/8
L:1/8
Q:3/8=120
K:Dmix
|:DEF ~G3|AGE c2A|dcA d2e|fed cAG|EFF GFG|AGA cde|
dcA GEA|~D3 D2:|A|dcA d2e|fed ege|dcA c2d|
ege dcA|dcA d2e|~f3 ~e3|dcA GEA|~D3 D2:|
